; generated by PrusaSlicer 2.3.0+win64 on 2021-01-12 at 21:46:23 UTC

; 

; external perimeters extrusion width = 0.45mm
; perimeters extrusion width = 0.45mm
; infill extrusion width = 0.45mm
; solid infill extrusion width = 0.45mm
; top infill extrusion width = 0.40mm
; support material extrusion width = 0.35mm
; first layer extrusion width = 0.42mm

M73 P0 R58
M73 Q0 S59
M201 X1000 Y1000 Z200 E5000 ; sets maximum accelerations, mm/sec^2
M203 X200 Y200 Z12 E120 ; sets maximum feedrates, mm/sec
M204 P1250 R1250 T1250 ; sets acceleration (P, T) and retract acceleration (R), mm/sec^2
M205 X8.00 Y8.00 Z0.40 E4.50 ; sets the jerk limits, mm/sec
M205 S0 T0 ; sets the minimum extruding and travel feed rate, mm/sec
M107
;TYPE:Custom
M862.3 P "MK3S" ; printer model check
M862.1 P0.4 ; nozzle diameter check
M115 U3.9.2 ; tell printer latest fw version
G90 ; use absolute coordinates
M83 ; extruder relative mode
M104 S230 ; set extruder temp
M140 S85 ; set bed temp
M190 S85 ; wait for bed temp
M109 S230 ; wait for extruder temp
G28 W ; home all without mesh bed level
G80 ; mesh bed leveling
G1 Y-3.0 F1000.0 ; go outside print area
G92 E0.0
G1 X60.0 E9.0 F1000.0 ; intro line
M73 Q0 S58
G1 X100.0 E12.5 F1000.0 ; intro line
G92 E0.0
M221 S95

; Don't change E values below. Excessive value can damage the printer.
M907 E430 ; set extruder motor current
G21 ; set units to millimeters
G90 ; use absolute coordinates
M83 ; use relative distances for extrusion
M900 K0.08 ; Filament gcode LA 1.5
M900 K45 ; Filament gcode LA 1.0
;LAYER_CHANGE
;Z:0.2
;HEIGHT:0.2
;BEFORE_LAYER_CHANGE
G92 E0.0
;0.2


G1 E-1.40000 F2100.000
G1 Z0.200 F10800.000
;AFTER_LAYER_CHANGE
;0.2
G1 Z0.400
G1 X101.773 Y88.943
G1 Z0.200
G1 E1.40000 F2100.000
M204 S1000
;TYPE:Skirt
;WIDTH:0.42
G1 F1200.000
G1 X102.477 Y88.829 E0.02237
G1 X147.504 Y88.829 E1.41179
G1 X148.003 Y88.883 E0.01574
G1 X148.483 Y89.042 E0.01585
G1 X148.915 Y89.297 E0.01574
G1 X149.285 Y89.636 E0.01574
G1 X152.603 Y93.771 E0.16623
G1 X152.908 Y94.399 E0.02190
G1 X153.018 Y95.093 E0.02201
G1 X152.973 Y108.596 E0.42340
G1 X150.583 Y115.777 E0.23730
G1 X148.553 Y120.553 E0.16271
G1 X148.226 Y121.048 E0.01858
G1 X147.787 Y121.446 E0.01858
G1 X147.159 Y121.760 E0.02201
G1 X146.467 Y121.877 E0.02201
G1 X115.921 Y122.047 E0.95775
G1 X103.683 Y121.869 E0.38378
G1 X103.175 Y121.769 E0.01621
G1 X102.698 Y121.561 E0.01633
G1 X102.281 Y121.256 E0.01621
G1 X101.939 Y120.868 E0.01621
G1 X99.053 Y115.741 E0.18447
G1 X97.062 Y108.580 E0.23304
G1 X96.982 Y108.027 E0.01752
G1 X96.982 Y94.933 E0.41056
G1 X97.038 Y94.430 E0.01585
G1 X97.212 Y93.923 E0.01680
G1 X97.495 Y93.468 E0.01680
G1 X100.703 Y89.651 E0.15633
G1 X101.134 Y89.261 E0.01823
G1 X101.719 Y88.970 E0.02049
; printing object Brakett 25mm ror M5 v2.stl id:0 copy 0
;WIPE_START
G1 F8640.000
G1 X102.477 Y88.829 E-0.17800
G1 X107.466 Y88.829 E-1.15200
;WIPE_END
G1 E-0.07000 F2100.000
G1 Z0.400 F10800.000
G1 X99.359 Y94.944
G1 Z0.200
G1 E1.40000 F2100.000
;TYPE:Support material
G1 F1200.000
G1 X99.359 Y107.965 E0.40826
G1 X100.113 Y107.965 E0.02365
G1 X100.113 Y95.114 E0.40294
G1 X100.867 Y95.114 E0.02365
G1 X100.867 Y107.965 E0.40294
G1 X101.271 Y107.965 E0.01268
G1 X101.271 Y114.886 E0.21701
G1 X101.621 Y114.886 E0.01097
G1 X101.621 Y95.114 E0.61995
G1 X102.086 Y95.114 E0.01459
G1 X102.086 Y101.251 E0.19242
G1 X102.106 Y101.339 E0.00284
G1 X102.375 Y101.917 E0.01997
G1 X102.375 Y114.886 E0.40665
G1 X103.129 Y114.886 E0.02365
G1 X103.129 Y103.534 E0.35594
G1 X103.884 Y105.151 E0.05595
G1 X103.884 Y119.500 E0.44991
G1 X104.638 Y119.500 E0.02365
G1 X104.638 Y106.768 E0.39920
G1 X105.392 Y108.386 E0.05595
G1 X105.392 Y119.500 E0.34849
G1 X106.146 Y119.500 E0.02365
G1 X106.146 Y110.003 E0.29778
G1 X106.900 Y111.620 E0.05595
G1 X106.900 Y119.500 E0.24707
G1 X107.654 Y119.500 E0.02365
G1 X107.654 Y113.238 E0.19636
G1 X108.302 Y114.626 E0.04802
G1 X108.409 Y114.728 E0.00464
G1 X108.409 Y119.500 E0.14962
G1 X109.163 Y119.500 E0.02365
G1 X109.163 Y115.046 E0.13968
G1 X109.917 Y115.360 E0.02562
G1 X109.917 Y119.500 E0.12981
G1 X110.671 Y119.500 E0.02365
G1 X110.671 Y115.675 E0.11994
G1 X111.425 Y115.990 E0.02562
G1 X111.425 Y119.500 E0.11007
G1 X112.179 Y119.500 E0.02365
G1 X112.179 Y116.304 E0.10021
G1 X112.933 Y116.619 E0.02562
G1 X112.933 Y119.500 E0.09034
G1 X113.688 Y119.500 E0.02365
G1 X113.688 Y116.934 E0.08047
G1 X114.442 Y117.249 E0.02562
G1 X114.442 Y119.500 E0.07060
G1 X115.196 Y119.500 E0.02365
G1 X115.196 Y117.563 E0.06074
G1 X115.950 Y117.878 E0.02562
G1 X115.950 Y119.670 E0.05619
;WIPE_START
G1 F8640.000
G1 X115.950 Y117.878 E-0.41379
G1 X115.196 Y117.563 E-0.18869
G1 X115.196 Y119.500 E-0.44727
G1 X114.442 Y119.500 E-0.17414
G1 X114.442 Y119.041 E-0.10611
;WIPE_END
G1 E-0.07000 F2100.000
G1 Z0.400 F10800.000
G1 X134.050 Y117.694
G1 Z0.200
G1 E1.40000 F2100.000
G1 F1200.000
G1 X134.050 Y119.223 E0.04793
G1 X134.105 Y119.500 E0.00888
G1 X134.804 Y119.500 E0.02190
G1 X134.804 Y117.563 E0.06074
G1 X135.558 Y117.249 E0.02562
G1 X135.558 Y119.500 E0.07060
G1 X136.312 Y119.500 E0.02365
G1 X136.312 Y116.934 E0.08047
G1 X137.067 Y116.619 E0.02562
G1 X137.067 Y119.500 E0.09034
G1 X137.821 Y119.500 E0.02365
G1 X137.821 Y116.304 E0.10021
G1 X138.575 Y115.990 E0.02562
G1 X138.575 Y119.500 E0.11007
G1 X139.329 Y119.500 E0.02365
G1 X139.329 Y115.675 E0.11994
G1 X140.083 Y115.360 E0.02562
G1 X140.083 Y119.500 E0.12981
G1 X140.837 Y119.500 E0.02365
G1 X140.837 Y115.046 E0.13968
G1 X141.591 Y114.728 E0.02565
G1 X141.591 Y119.500 E0.14962
G1 X142.346 Y119.500 E0.02365
G1 X142.346 Y113.238 E0.19636
G1 X143.100 Y111.620 E0.05595
G1 X143.100 Y119.500 E0.24707
G1 X143.854 Y119.500 E0.02365
G1 X143.854 Y110.003 E0.29778
G1 X144.608 Y108.386 E0.05595
G1 X144.608 Y119.500 E0.34849
G1 X145.362 Y119.500 E0.02365
G1 X145.362 Y106.768 E0.39920
G1 X146.116 Y105.151 E0.05595
G1 X146.116 Y119.500 E0.44991
G1 X146.422 Y119.500 E0.00957
G1 X146.422 Y114.886 E0.14467
G1 X146.871 Y114.886 E0.01408
G1 X146.871 Y103.534 E0.35594
G1 X147.625 Y101.917 E0.05595
G1 X147.625 Y114.886 E0.40665
M73 P1 R58
M73 Q1 S58
G1 X148.379 Y114.886 E0.02365
G1 X148.379 Y95.114 E0.61995
G1 X149.133 Y95.114 E0.02365
G1 X149.133 Y107.965 E0.40294
G1 X149.887 Y107.965 E0.02365
G1 X149.887 Y95.114 E0.40294
G1 X150.641 Y95.114 E0.02365
G1 X150.641 Y108.135 E0.40826
;WIPE_START
G1 F8640.000
G1 X150.641 Y102.375 E-1.33000
;WIPE_END
G1 E-0.07000 F2100.000
G1 Z0.400 F10800.000
G1 X140.772 Y113.772
G1 Z0.200
G1 E1.40000 F2100.000
;TYPE:Perimeter
G1 F1200.000
G1 X130.624 Y118.007 E0.34476
G1 X119.376 Y118.007 E0.35268
G1 X109.228 Y113.772 E0.34476
G1 X103.287 Y101.031 E0.44078
G1 X103.287 Y91.993 E0.28337
G1 X113.205 Y91.993 E0.31097
G1 X113.205 Y95.103 E0.09751
G1 X112.867 Y95.792 E0.02406
G1 X112.500 Y96.701 E0.03071
G1 X112.202 Y97.634 E0.03071
G1 X111.974 Y98.586 E0.03071
G1 X111.816 Y99.553 E0.03071
G1 X111.730 Y100.528 E0.03071
G1 X111.716 Y101.508 E0.03071
G1 X111.774 Y102.486 E0.03071
G1 X111.904 Y103.456 E0.03071
G1 X112.105 Y104.415 E0.03071
G1 X112.376 Y105.356 E0.03071
G1 X112.716 Y106.275 E0.03071
G1 X113.122 Y107.166 E0.03071
G1 X113.594 Y108.025 E0.03071
G1 X114.127 Y108.846 E0.03071
G1 X114.719 Y109.626 E0.03071
G1 X115.367 Y110.361 E0.03071
G1 X116.067 Y111.046 E0.03071
G1 X116.816 Y111.677 E0.03071
G1 X117.609 Y112.251 E0.03071
G1 X118.443 Y112.766 E0.03071
G1 X119.312 Y113.217 E0.03071
G1 X120.212 Y113.604 E0.03071
G1 X121.138 Y113.923 E0.03071
G1 X122.085 Y114.173 E0.03071
G1 X123.048 Y114.352 E0.03071
G1 X124.021 Y114.460 E0.03071
G1 X125.000 Y114.496 E0.03071
G1 X125.979 Y114.460 E0.03071
G1 X126.952 Y114.352 E0.03071
G1 X127.915 Y114.173 E0.03071
G1 X128.862 Y113.923 E0.03071
G1 X129.788 Y113.604 E0.03071
G1 X130.688 Y113.217 E0.03071
G1 X131.557 Y112.766 E0.03071
G1 X132.391 Y112.251 E0.03071
G1 X133.184 Y111.677 E0.03071
G1 X133.933 Y111.046 E0.03071
G1 X134.633 Y110.361 E0.03071
G1 X135.281 Y109.626 E0.03071
G1 X135.873 Y108.846 E0.03071
G1 X136.406 Y108.025 E0.03071
G1 X136.878 Y107.166 E0.03071
G1 X137.284 Y106.275 E0.03071
G1 X137.624 Y105.356 E0.03071
G1 X137.895 Y104.415 E0.03071
G1 X138.096 Y103.456 E0.03071
G1 X138.226 Y102.486 E0.03071
G1 X138.284 Y101.508 E0.03072
G1 X138.269 Y100.515 E0.03113
G1 X138.184 Y99.553 E0.03028
G1 X138.026 Y98.586 E0.03071
G1 X137.798 Y97.634 E0.03071
G1 X137.500 Y96.701 E0.03071
G1 X137.133 Y95.792 E0.03071
G1 X136.795 Y95.103 E0.02406
G1 X136.795 Y91.993 E0.09751
G1 X146.713 Y91.993 E0.31097
G1 X146.713 Y101.031 E0.28337
G1 X140.797 Y113.718 E0.43890
M73 P1 R57
G1 X141.052 Y114.064 F10800.000
;TYPE:External perimeter
G1 F1200.000
G1 X130.700 Y118.384 E0.35171
G1 X119.300 Y118.384 E0.35742
G1 X108.948 Y114.064 E0.35171
G1 X102.910 Y101.115 E0.44798
G1 X102.910 Y91.616 E0.29781
G1 X113.582 Y91.616 E0.33462
G1 X113.582 Y95.191 E0.11208
G1 X113.211 Y95.946 E0.02638
G1 X112.855 Y96.829 E0.02984
G1 X112.566 Y97.735 E0.02984
G1 X112.344 Y98.661 E0.02984
G1 X112.190 Y99.600 E0.02984
G1 X112.107 Y100.548 E0.02984
G1 X112.093 Y101.499 E0.02984
G1 X112.149 Y102.449 E0.02984
G1 X112.276 Y103.393 E0.02984
G1 X112.471 Y104.324 E0.02984
G1 X112.735 Y105.238 E0.02984
G1 X113.065 Y106.131 E0.02984
G1 X113.460 Y106.997 E0.02984
G1 X113.917 Y107.831 E0.02984
G1 X114.435 Y108.629 E0.02984
G1 X115.011 Y109.387 E0.02984
G1 X115.640 Y110.101 E0.02984
G1 X116.321 Y110.766 E0.02984
G1 X117.048 Y111.380 E0.02984
G1 X117.819 Y111.938 E0.02984
G1 X118.629 Y112.438 E0.02984
G1 X119.473 Y112.876 E0.02984
G1 X120.348 Y113.252 E0.02984
G1 X121.248 Y113.562 E0.02984
G1 X122.168 Y113.805 E0.02984
G1 X123.103 Y113.979 E0.02984
G1 X124.049 Y114.084 E0.02984
G1 X125.000 Y114.119 E0.02984
G1 X125.951 Y114.084 E0.02984
G1 X126.897 Y113.979 E0.02984
G1 X127.832 Y113.805 E0.02984
G1 X128.752 Y113.562 E0.02984
G1 X129.652 Y113.252 E0.02984
G1 X130.527 Y112.876 E0.02984
G1 X131.371 Y112.438 E0.02984
G1 X132.181 Y111.938 E0.02984
G1 X132.952 Y111.380 E0.02984
G1 X133.679 Y110.766 E0.02984
G1 X134.360 Y110.101 E0.02984
G1 X134.989 Y109.387 E0.02984
G1 X135.565 Y108.629 E0.02984
G1 X136.083 Y107.831 E0.02984
G1 X136.540 Y106.997 E0.02984
G1 X136.935 Y106.131 E0.02984
G1 X137.265 Y105.238 E0.02984
G1 X137.529 Y104.324 E0.02984
G1 X137.724 Y103.393 E0.02984
G1 X137.851 Y102.449 E0.02984
G1 X137.907 Y101.499 E0.02984
G1 X137.892 Y100.534 E0.03026
G1 X137.810 Y99.600 E0.02941
G1 X137.656 Y98.661 E0.02984
G1 X137.434 Y97.735 E0.02984
G1 X137.145 Y96.829 E0.02984
G1 X136.789 Y95.946 E0.02984
G1 X136.418 Y95.191 E0.02638
G1 X136.418 Y91.616 E0.11208
G1 X147.090 Y91.616 E0.33462
G1 X147.090 Y101.115 E0.29781
G1 X141.077 Y114.009 E0.44610
G1 X140.676 Y113.927 F10800.000
;WIPE_START
G1 F8640.000
G1 X135.769 Y116.247 E-1.33000
;WIPE_END
G1 E-0.07000 F2100.000
G1 Z0.400 F10800.000
G1 X146.600 Y92.873
G1 Z0.200
G1 E1.40000 F2100.000
;TYPE:Solid infill
;WIDTH:0.421747
G1 F1200.000
G1 X146.004 Y92.276 E0.02656
G1 X145.468 Y92.276 E0.01688
G1 X146.430 Y93.239 E0.04287
G1 X146.430 Y93.774 E0.01688
G1 X144.932 Y92.276 E0.06674
G1 X144.396 Y92.276 E0.01688
G1 X146.430 Y94.310 E0.09060
G1 X146.430 Y94.846 E0.01688
G1 X143.861 Y92.276 E0.11447
G1 X143.325 Y92.276 E0.01688
G1 X146.430 Y95.382 E0.13833
G1 X146.430 Y95.917 E0.01688
G1 X142.789 Y92.276 E0.16220
G1 X142.253 Y92.276 E0.01688
G1 X146.430 Y96.453 E0.18606
G1 X146.430 Y96.989 E0.01688
G1 X141.718 Y92.276 E0.20993
G1 X141.182 Y92.276 E0.01688
G1 X146.430 Y97.525 E0.23380
G1 X146.430 Y98.060 E0.01688
G1 X140.646 Y92.276 E0.25766
G1 X140.110 Y92.276 E0.01688
G1 X146.430 Y98.596 E0.28153
G1 X146.430 Y99.132 E0.01688
G1 X139.575 Y92.276 E0.30539
G1 X139.039 Y92.276 E0.01688
G1 X146.430 Y99.667 E0.32926
G1 X146.430 Y100.203 E0.01688
G1 X138.503 Y92.276 E0.35313
G1 X137.967 Y92.276 E0.01688
G1 X146.430 Y100.739 E0.37699
G1 X146.430 Y100.968 E0.00723
G1 X146.333 Y101.177 E0.00726
G1 X137.432 Y92.276 E0.39652
G1 X137.078 Y92.276 E0.01115
G1 X137.078 Y92.458 E0.00573
G1 X146.162 Y101.543 E0.40469
G1 X145.992 Y101.908 E0.01270
G1 X137.078 Y92.994 E0.39710
M73 Q1 S57
G1 X137.078 Y93.530 E0.01688
G1 X145.822 Y102.273 E0.38951
G1 X145.651 Y102.639 E0.01270
G1 X137.078 Y94.065 E0.38192
G1 X137.078 Y94.601 E0.01688
G1 X145.481 Y103.004 E0.37433
G1 X145.310 Y103.370 E0.01270
G1 X137.174 Y95.233 E0.36248
G1 X137.392 Y95.677 E0.01559
G1 X137.601 Y96.196 E0.01762
G1 X145.140 Y103.735 E0.33585
G1 X144.970 Y104.100 E0.01270
G1 X137.903 Y97.033 E0.31482
G1 X138.127 Y97.793 E0.02495
G1 X144.799 Y104.466 E0.29725
G1 X144.629 Y104.831 E0.01270
G1 X138.296 Y98.498 E0.28212
G1 X138.403 Y99.141 E0.02054
G1 X144.459 Y105.196 E0.26974
G1 X144.288 Y105.562 E0.01270
G1 X138.486 Y99.760 E0.25846
G1 X138.538 Y100.347 E0.01858
G1 X144.118 Y105.927 E0.24856
G1 X143.947 Y106.292 E0.01270
G1 X138.558 Y100.903 E0.24010
G1 X138.566 Y101.447 E0.01714
G1 X143.777 Y106.658 E0.23213
M73 P2 R57
M73 Q2 S57
G1 X143.607 Y107.023 E0.01270
G1 X138.541 Y101.957 E0.22567
G1 X138.511 Y102.463 E0.01596
G1 X143.436 Y107.389 E0.21942
G1 X143.266 Y107.754 E0.01270
G1 X138.451 Y102.939 E0.21450
G1 X138.388 Y103.411 E0.01502
G1 X143.096 Y108.119 E0.20973
G1 X142.925 Y108.485 E0.01270
G1 X138.300 Y103.860 E0.20602
G1 X138.208 Y104.303 E0.01425
G1 X142.755 Y108.850 E0.20257
G1 X142.584 Y109.215 E0.01270
G1 X138.099 Y104.730 E0.19983
G1 X137.979 Y105.145 E0.01363
G1 X142.414 Y109.581 E0.19758
G1 X142.244 Y109.946 E0.01270
G1 X137.852 Y105.554 E0.19564
G1 X137.707 Y105.945 E0.01313
G1 X142.073 Y110.312 E0.19449
G1 X141.903 Y110.677 E0.01270
G1 X137.563 Y106.337 E0.19335
G1 X137.398 Y106.707 E0.01278
G1 X141.733 Y111.042 E0.19311
G1 X141.562 Y111.408 E0.01270
G1 X137.230 Y107.075 E0.19300
G1 X137.053 Y107.434 E0.01260
G1 X141.392 Y111.773 E0.19329
G1 X141.221 Y112.138 E0.01270
G1 X136.863 Y107.780 E0.19415
G1 X136.673 Y108.126 E0.01243
G1 X141.051 Y112.504 E0.19502
G1 X140.881 Y112.869 E0.01270
G1 X136.465 Y108.454 E0.19670
G1 X136.254 Y108.779 E0.01220
G1 X140.710 Y113.234 E0.19850
G1 X140.562 Y113.553 E0.01108
G1 X140.513 Y113.573 E0.00165
G1 X136.038 Y109.098 E0.19938
G1 X135.807 Y109.402 E0.01204
G1 X140.135 Y113.731 E0.19284
G1 X139.757 Y113.889 E0.01290
G1 X135.575 Y109.707 E0.18630
G1 X135.331 Y109.998 E0.01198
G1 X139.379 Y114.047 E0.18036
G1 X139.001 Y114.204 E0.01290
G1 X135.080 Y110.282 E0.17471
G1 X134.828 Y110.566 E0.01195
G1 X138.623 Y114.362 E0.16909
G1 X138.245 Y114.520 E0.01290
G1 X134.557 Y110.831 E0.16432
G1 X134.286 Y111.096 E0.01193
G1 X137.867 Y114.677 E0.15954
G1 X137.489 Y114.835 E0.01290
G1 X134.007 Y111.353 E0.15512
G1 X133.717 Y111.598 E0.01198
G1 X137.111 Y114.993 E0.15123
G1 X136.733 Y115.151 E0.01290
G1 X133.426 Y111.843 E0.14735
G1 X133.120 Y112.073 E0.01205
G1 X136.355 Y115.308 E0.14414
G1 X135.977 Y115.466 E0.01290
G1 X132.809 Y112.298 E0.14115
G1 X132.495 Y112.519 E0.01211
G1 X135.599 Y115.624 E0.13830
G1 X135.221 Y115.782 E0.01290
G1 X132.164 Y112.724 E0.13622
G1 X131.832 Y112.928 E0.01226
G1 X134.843 Y115.939 E0.13413
G1 X134.465 Y116.097 E0.01290
G1 X131.489 Y113.120 E0.13261
G1 X131.136 Y113.303 E0.01251
G1 X134.087 Y116.255 E0.13148
G1 X133.709 Y116.413 E0.01290
G1 X130.782 Y113.485 E0.13042
G1 X130.407 Y113.646 E0.01285
G1 X133.331 Y116.570 E0.13028
G1 X132.953 Y116.728 E0.01290
G1 X130.032 Y113.807 E0.13014
G1 X129.643 Y113.953 E0.01311
G1 X132.575 Y116.886 E0.13065
G1 X132.197 Y117.044 E0.01290
G1 X129.244 Y114.090 E0.13156
G1 X128.839 Y114.221 E0.01340
G1 X131.819 Y117.201 E0.13275
G1 X131.441 Y117.359 E0.01290
G1 X128.416 Y114.333 E0.13479
G1 X127.992 Y114.445 E0.01381
G1 X131.063 Y117.517 E0.13684
G1 X130.685 Y117.675 E0.01290
G1 X127.541 Y114.530 E0.14007
G1 X127.090 Y114.614 E0.01447
G1 X130.199 Y117.724 E0.13851
G1 X129.663 Y117.724 E0.01688
G1 X126.614 Y114.674 E0.13584
G1 X126.132 Y114.728 E0.01528
G1 X129.127 Y117.724 E0.13345
G1 X128.592 Y117.724 E0.01688
G1 X125.624 Y114.756 E0.13219
G1 X125.108 Y114.776 E0.01629
G1 X128.056 Y117.724 E0.13134
G1 X127.520 Y117.724 E0.01688
G1 X124.560 Y114.763 E0.13188
G1 X124.003 Y114.743 E0.01753
G1 X126.984 Y117.724 E0.13280
G1 X126.449 Y117.724 E0.01688
G1 X123.401 Y114.676 E0.13577
G1 X122.779 Y114.590 E0.01978
